X: 11222
P: The Anemone.
M: 2/4
L: 1/16
K: C
|:\
e2cc (c2B2) | A2AA (f4 | e2).d2(c2B2) | .c4 .c4 :|\
!p!G2c2e2^d2 | e2G2 e4 | d2G2 d4 | e2G2 e4 |
!f!G2c2e2^d2 | e2G2 e4 | d2G2 d4 | e2G2 e4 |\


